img/browser.svg

<svg enable-background="new 0 0 360 40" height="40" viewBox="0 0 360 40" width="360" xmlns="http://www.w3.org/2000/svg"><path d="m356 0h-352c-2.2 0-4 1.8-4 4v16 20h360v-36c0-2.2-1.8-4-4-4zm-333.009 27c-3.866 0-7-3.134-7-7s3.134-7 7-7 7 3.134 7 7-3.134 7-7 7zm23.011 0c-3.866 0-7-3.134-7-7s3.134-7 7-7 7 3.134 7 7-3.134 7-7 7zm23.011 0c-3.866 0-7-3.134-7-7s3.134-7 7-7 7 3.134 7 7-3.134 7-7 7z" fill="#4d4d4d"/></svg>

<?xml version="1.0" encoding="utf-8"?>
<!-- Generator: Adobe Illustrator 15.0.0, SVG Export Plug-In . SVG Version: 6.00 Build 0)  -->
<!DOCTYPE svg PUBLIC "-//W3C//DTD SVG 1.1//EN" "http://www.w3.org/Graphics/SVG/1.1/DTD/svg11.dtd">
<svg version="1.1" id="Layer_1" xmlns="http://www.w3.org/2000/svg" xmlns:xlink="http://www.w3.org/1999/xlink" x="0px" y="0px"
	 width="360px" height="40px" viewBox="0 0 360 40" enable-background="new 0 0 360 40" xml:space="preserve">
<path fill="#4D4D4D" d="M356,0H4C1.8,0,0,1.8,0,4v16v20h360V4C360,1.8,358.2,0,356,0z M22.991,27c-3.866,0-7-3.134-7-7s3.134-7,7-7
	s7,3.134,7,7S26.857,27,22.991,27z M46.002,27c-3.866,0-7-3.134-7-7s3.134-7,7-7s7,3.134,7,7S49.868,27,46.002,27z M69.013,27
	c-3.866,0-7-3.134-7-7s3.134-7,7-7s7,3.134,7,7S72.879,27,69.013,27z"/>
</svg>
